X:100
T: Mick Mulcahy's
S: "Johnny O'Leary of Sliabh Luachra" (#164)
Z: B.Black
N: version of "Out in the Ocean"
L: 1/8
M: 6/8
R: jig
K: G
B3 BAG|BdB A/B/AB|GED G2A|BDD AGE|
D2B BAG|BdB A/B/AB|GED G2A|BGG GFE|
D3 BAG|BdB A/G/AB|GED G2A BDD AGE|
D2B BAG|BdB A/G/AB|GED G2A|BGG GBd||
e3 edB|ege edB|d2d def|gfe dBA|
G2A B2d|e/f/ge dBA|GED G2A|BGG GBd|
ege edB|ege edB|dfd def|gfe dBA|
G/A/GA B2d|e/f/ge dBA|GED G2A|BGG G3 ||
